X:1
T:Arie des Papageno
T:Arie des Papageno
T:aus der Oper "Die Zauberflöte"
T:W. A. Mozart
C:W. A. Mozart
%%score { 1 | 2 }
L:1/8
Q:1/4=140
M:4/4
K:C
V:1 treble nm="Piano" snm="Pno."
V:2 bass 
V:1
 (ed | c2) c2 (dcBc | .d2) .e2 .d2 dB | G2 z G g2 z g | e2 d2 c2 (ce) | (dcBc dcBc | %6
 .d2) .e2 d3 d | g3 g d3 d | .B2 .A2 .G2 GB | d2 d2 (edcd | e2) d2 c2 g2 | g B2 B (dcBc | %12
 d2) e2 d2 B2 | .c2 (c/d/e/f/ g2) B2 | .c2 (c/d/e/f/ g2) (cd | e3) (e fede | f2) g2 .a2 fd | %17
 B3 (B cBAB) | (cedB .c2) (c/d/e/f/ | .g2) !tenuto!B2 .c2 (c/d/e/f/ | g2) !tenuto!B2 .c2 (cG | %21
 E3) G (GFED | .C2) .E2 .C2 |] %23
V:2
 z2 | [G,CE]4 [G,CE]4 | .[B,D]2 .[CE]2 .[B,D]2 z2 | %3
 z .[B,D] !tenuto![B,D]2 z .[B,D] !tenuto![B,D]2 | CG,B,G, C2 z2 | [B,D]4 [B,D]4 | B,G,CG, B,3 z | %7
 z .[B,D] !tenuto![B,D]2 z .[B,D] !tenuto![B,D]2 | .[B,D]2 .[A,C]2 .[G,B,]2 z2 | %9
 B,G,B,G, B,G,B,G, | CG,B,G, CG,B,G, | [G,B,F]4 [G,CE]4 | [B,D]G,[CE]G, [B,D]2 z2 | %13
 .[G,CE]2 z2 z2 [G,B,D]2 | .[G,CE]2 z2 z4 | G,CEC G,_B,CB, | A,CG,C .[G,CE]2 z2 | G,DB,D G,DB,D | %18
 [G,CE]2 [G,B,F]2 .[G,CE]2 z2 | z2 !tenuto![G,B,F]2 .[G,CE]2 z2 | z2 !tenuto![G,B,F]2 .[G,CE]2 z2 | %21
 z [G,C] [G,C]2 [G,B,]4 | C,2 E,2 C,2 |] %23

